X: 17
T: Rolling In The Ryegrass
R: reel
M: 4/4
L: 1/8
K: Dmaj
|:A2AF DFAF|G2BG dGBG|A2 AF DFAF|GBAF E2D2:|
|:ABde f3d|g3e fedB|ABde f2fg|afdf e2d2:|


Tune 87	Setting 12616

